libs/ui/packages/crypto-icons/src/svg/TNC.svg

<svg width="24" height="24" viewBox="0 0 24 24" fill="none">
<path fill-rule="evenodd" clip-rule="evenodd" d="M13.6695 11.103L17.8942 18.375H6.18375L7.587 16.0477L13.896 16.0492L12.297 13.4393L13.6695 11.103ZM9.357 12.795L13.6522 5.655L19.5 15.5002H16.692L13.602 10.1302L12.1013 12.7958L9.357 12.795ZM13.0208 15.5093L4.5 15.4688L10.3553 5.625L11.7502 7.9845L8.523 13.173H11.6483L13.0208 15.5093Z" fill="#FF439B"/>
</svg>

<svg width="24" height="24" viewBox="0 0 24 24" fill="none"><path fill="#ff439b" fill-rule="evenodd" d="m13.67 11.103 4.224 7.272H6.184l1.403-2.327 6.309.001-1.599-2.61zm-4.313 1.692 4.295-7.14L19.5 15.5h-2.808l-3.09-5.37-1.5 2.666zm3.664 2.714L4.5 15.47l5.855-9.844 1.395 2.36-3.227 5.188h3.125z" clip-rule="evenodd"/></svg>
